X:1
T:Thomas Hastings
T:That Warning Voice
%%score { ( 1 2 ) | 3 }
L:1/8
M:3/4
K:Bb
V:1 treble 
V:2 treble 
V:3 bass 
V:1
 B2 | BB Fd cA | B4 d2 | dd cf ed | (d2 c2) c2 | dB A2 G2 | F4 c2 | dd cF ed | (d2 c2) c2 | %9
 dd cf ed | (d2 c2) f2 | gg B2 c>B | B4 |] %13
V:2
 D2 | DD DF EC | D4 F2 | FB AB AB | (B2 A2) A2 | BG F2 =E2 | F4 A2 | BB AF cB | (B2 A2) A2 | %9
 BB AB AB | (B2 A2) B2 | BB D2 E>D | D4 |] %13
V:3
 B,,2 | B,,B,, B,,B,, E,F, | B,,4 B,2 | B,B, F,D, C,B,, | F,4 F,2 | B,,B,, C,2 C,2 | F,4 F,2 | %7
 F,F, F,F, F,B, | F,4 F,2 | B,B, F,D, C,B,, | F,4 D,2 | E,E, F,2 F,2 | B,,4 |] %13

